packages/base/Icons/src/Icon/svg/control24.svg

<svg width="24" height="24" viewBox="0 0 24 24" fill="none" xmlns="http://www.w3.org/2000/svg">
<path fill-rule="evenodd" clip-rule="evenodd" d="M15 7H0V6H15V7ZM24 7H20V6H24V7ZM4 19H0V18H4V19ZM24 19H9V18H24V19Z" fill="#455065"/>
<path fill-rule="evenodd" clip-rule="evenodd" d="M17.5 4C16.1193 4 15 5.11929 15 6.5C15 7.88071 16.1193 9 17.5 9C18.8807 9 20 7.88071 20 6.5C20 5.11929 18.8807 4 17.5 4ZM14 6.5C14 4.567 15.567 3 17.5 3C19.433 3 21 4.567 21 6.5C21 8.433 19.433 10 17.5 10C15.567 10 14 8.433 14 6.5Z" fill="#455065"/>
<path fill-rule="evenodd" clip-rule="evenodd" d="M6.5 16C5.11929 16 4 17.1193 4 18.5C4 19.8807 5.11929 21 6.5 21C7.88071 21 9 19.8807 9 18.5C9 17.1193 7.88071 16 6.5 16ZM3 18.5C3 16.567 4.567 15 6.5 15C8.433 15 10 16.567 10 18.5C10 20.433 8.433 22 6.5 22C4.567 22 3 20.433 3 18.5Z" fill="#455065"/>
</svg>

<svg xmlns="http://www.w3.org/2000/svg" width="24" height="24" viewBox="0 0 24 24">
  <path fill="#455065" d="M17.5 4a2.5 2.5 0 1 0 0 5 2.5 2.5 0 0 0 0-5ZM14 6.5a3.5 3.5 0 1 1 7 0 3.5 3.5 0 0 1-7 0ZM6.5 16a2.5 2.5 0 1 0 0 5 2.5 2.5 0 0 0 0-5ZM3 18.5a3.5 3.5 0 1 1 7 0 3.5 3.5 0 0 1-7 0Z M15 7H0V6h15v1Zm9 0h-4V6h4v1ZM4 19H0v-1h4v1Zm20 0H9v-1h15v1Z"/>
</svg>
